X:300
T: The Burren / The Temperance
Z:Julie Ross
M: 4/4
L: 1/8
R: reel
K: Dmaj
"The Burren"
|: A3B AF~F2 | AFAd ~f3g | afef dBBc | dBAF EFDF |
A3B AFDF | AFAd ~f3g | afef dBBd |1 Adfe d2dB :|2 Adfe d3e ||
|: fdec dcBA | dcdf a3f | g2fg edBc | dBAF EFDF |
~A3B AFEF | DFAd f2fg |afef dBBd |1 Adfe d3e :|2 Adfe d4 ||
K:G
"The Temperance"
G2GF GABc|dBge dBAc|BEED EFGA|BGAF GFED|
G2GF GABc|dBge dBAc|BEED EFGA|BGAF G4:|
|:Beed e3f|geaf gfed|Bdd^c d2de|fgaf gfed|
Beed e3f|geaf gfed|BEED EFGA|BGAF G4:|
